X: 23001
T: Last Day Of January, The
R: jig
M: 6/8
K: Ddorian
A,DE F2G|Adc AGE|CEG c3|GEC EFG|
A,DE F2G|Adc AGE|cBc dcA|1 GEC D2C:|2 GEC D2A,||
DFA d2e|fed cGF|EFG c3|GEC EFG|
DFA d2e|fed cBA|cBc dcA|1 GEC D2C:|2 GEC D2A,||

